X: 8709
T: Crowley's
R: reel
M: 4/4
K: Dmajor
dB|AFdA B2 dB|AD D2 AD D2|AFAd BGBc|d2 eg fddB|
AFdA B2 dB|AD D2 AD D2|AFAd BABc|d2 eg fd d2||
fafa g2 fg|eA (3cBA eA (3cBA|Af f2 g2 fg|(3agf (3gfe fdde|
(3fga fa g2 fg|eA (3cBA eA (3cBA|Af f2 g2 fg|(3agf (3gfe fd d2||

